src/assets/icons/building-columns.svg

<svg width="14" height="14" viewBox="0 0 14 14" fill="none" xmlns="http://www.w3.org/2000/svg">
<g id="building-columns">
<g clip-path="url(#clip0_295_4710)">
<path id="Vector" fill-rule="evenodd" clip-rule="evenodd" d="M7.08717 1.86927C7.03296 1.83915 6.96705 1.83915 6.91284 1.86927L0.800048 5.26526C0.540091 5.40968 0.212279 5.31602 0.0678585 5.05607C-0.0765618 4.79611 0.017099 4.4683 0.277056 4.32388L6.38985 0.927883C6.76931 0.717073 7.2307 0.717073 7.61016 0.927883L13.7229 4.32388C13.9829 4.4683 14.0766 4.79611 13.9321 5.05607C13.7877 5.31602 13.4599 5.40968 13.2 5.26526L7.08717 1.86927ZM5.02567 4.79457C5.02567 4.49719 5.26674 4.25611 5.56412 4.25611H8.43588C8.73326 4.25611 8.97433 4.49719 8.97433 4.79457C8.97433 5.09195 8.73326 5.33302 8.43588 5.33302H5.56412C5.26674 5.33302 5.02567 5.09195 5.02567 4.79457ZM2.69237 6.40993C2.98975 6.40993 3.23083 6.651 3.23083 6.94838V10.5381C3.23083 10.8355 2.98975 11.0765 2.69237 11.0765C2.39499 11.0765 2.15392 10.8355 2.15392 10.5381V6.94838C2.15392 6.651 2.39499 6.40993 2.69237 6.40993ZM5.56413 6.40993C5.86151 6.40993 6.10258 6.651 6.10258 6.94838V10.5381C6.10258 10.8355 5.86151 11.0765 5.56413 11.0765C5.26675 11.0765 5.02567 10.8355 5.02567 10.5381V6.94838C5.02567 6.651 5.26675 6.40993 5.56413 6.40993ZM8.43588 6.40993C8.73326 6.40993 8.97434 6.651 8.97434 6.94838V10.5381C8.97434 10.8355 8.73326 11.0765 8.43588 11.0765C8.1385 11.0765 7.89743 10.8355 7.89743 10.5381V6.94838C7.89743 6.651 8.1385 6.40993 8.43588 6.40993ZM11.3076 6.40993C11.605 6.40993 11.8461 6.651 11.8461 6.94838V10.5381C11.8461 10.8355 11.605 11.0765 11.3076 11.0765C11.0103 11.0765 10.7692 10.8355 10.7692 10.5381V6.94838C10.7692 6.651 11.0103 6.40993 11.3076 6.40993ZM1.43598 12.6919C1.43598 12.3945 1.67705 12.1534 1.97443 12.1534H12.0256C12.323 12.1534 12.564 12.3945 12.564 12.6919C12.564 12.9893 12.323 13.2303 12.0256 13.2303H1.97443C1.67705 13.2303 1.43598 12.9893 1.43598 12.6919Z" fill="black"/>
</g>
</g>
<defs>
<clipPath id="clip0_295_4710">
<rect width="14" height="14" fill="white"/>
</clipPath>
</defs>
</svg>

<svg xmlns="http://www.w3.org/2000/svg" fill="none" viewBox="0 0 14 14"><g clip-path="url(#a)"><path fill="#000" fill-rule="evenodd" d="M7.087 1.87a.18.18 0 0 0-.174 0L.8 5.264a.538.538 0 0 1-.523-.941L6.39.928c.38-.21.84-.21 1.22 0l6.113 3.396a.538.538 0 1 1-.523.941zM5.026 4.794c0-.298.24-.539.538-.539h2.872a.538.538 0 0 1 0 1.077H5.564a.54.54 0 0 1-.538-.538M2.692 6.41c.298 0 .539.241.539.538v3.59a.538.538 0 0 1-1.077 0v-3.59c0-.297.241-.538.538-.538m2.872 0c.298 0 .539.241.539.538v3.59a.538.538 0 1 1-1.077 0v-3.59c0-.297.24-.538.538-.538m2.872 0c.297 0 .538.241.538.538v3.59a.538.538 0 0 1-1.077 0v-3.59c0-.297.242-.538.539-.538m2.872 0c.297 0 .538.241.538.538v3.59a.538.538 0 0 1-1.077 0v-3.59c0-.297.241-.538.539-.538m-9.872 6.282c0-.297.241-.539.538-.539h10.052a.538.538 0 0 1 0 1.077H1.974a.54.54 0 0 1-.538-.538" clip-rule="evenodd"/></g><defs><clipPath id="a"><path fill="#fff" d="M0 0h14v14H0z"/></clipPath></defs></svg>
